!!!COM: Georges Bizet
!!!CNT: Francais
!!!TXO: Francais
!!!OTL: A\ une Fleur
!!!LYR: Alfred de Musset
!!!OPR: Feuilles d'Album
!!!ONM: No. 1
!!!ENC: Jacob Pegg
!!!YOR: Romantic French Song 1830-1870 -David Tunley, ed.,
!!!YOR: New York: Garland Publishing, Inc., 1995, Vol. 4
!!!ODT: 1866/
!!NB: Vocal melody and text only encoded.
!!NB: First instance of melodic material only encoded.
**kern	**silbe
*clef G2	*
*k[f#]	*
*M6/8	*
!!created: 5/8/03 12:23
!!proofed and posted: 5/10/03 19:49
!!edit time: 238 min.
=14	=14
4r	.
{8d	{Que
4g	me
8a	veux~
=15	=15
[4.a	~tu,
4a]}	|}
8r	.
=16	=16
{4.a	{che\-
(16aq	|
16bq	|
4a)	-re
8g	fleu-
=17	=17
[2.b	-ret-
=18	=18
8b]}	-te,}
8r	.
{8g	{Ai-
4dd	-ma-
8dd	-ble et
=19	=19
4cc	char-
8cc	-mant
(8b	sou-
8a)	|
8b	-ve-
=20	=20
[2.a	-nir?
=21	=21
8a]}	|}
8r	.
8r	.
{4b	{De-
8a	-mi~
=22	=22
4g	~mor-
8f#	-te et
8e	de-
8f#	-mi~
8g	~co-
=23	=23
[4a	-quet-
16a]}	-te,}
16r	.
{(8d	{Jus-
8g)	|
8f#	-qu'a\
=24	=24
8e	moi
8f#	qui
8g	te
4a	fait
(16aq	|
16cc#q	|
8b)	ve-
=25	=25
[2.a	-nir?
=26	=26
8a]}	|}
8r	.
8r	.
4r	.
8r	.
!!rests subbed for beginning of next phrase
!!mm.26-34 repeat material
=35	=35
4.r	.
{(8d	{Qui
8g)	|
8f#	sur
=36	=36
(8e	le
8f#)	|
8g	buis-
8a	-son
8b	t'a
8cc	cou-
=37	=37
(4.b	-pe/-
4.a)	|
=38	=38
[4.g	-e?
4g]}	|}
8r	.
=39	=39
4r	.
8r	.
{8g	{N'es~
8f#	~tu
8g	qu'une
=40	=40
4.a	her-
8e	-be
8a	des-
8b	-se/-
=41	=41
[4a	-che/-
8a]}	-e,}
{(8dd	{Qui
8cc#)	|
8b	vient
=42	=42
(8b	a-
8a)	|
8g	-che-
8f#	-ver
(16f#q	|
16aq	|
8.g)	de
16e	mou-
=43	=43
4.d}	-rir?}
8r	.
{8d	{Ou
8d	ton
=44	=44
8e	sein,
8r	.
8a	pre^t
8f#	a\
8e	re-
8d	-fleu-
=45	=45
4g}	-rir,}
8r	.
{8d	{Ren-
8c#	-fer-
8d	-me~
=46	=46
4.e	~t~il
8a	u-
8f#	-ne
8d	pen-
=47	=47
[4g	-se/-
16g]}	-e?}
16r	.
{8g	{Ta
8f#	fleur,
8g	he/-
=48	=48
8a}	-las!}
8r	.
{8a	{a
4b	la
8b	blan-
=49	=49
4cc	-cheur
8g	De
8g	la
8a	de/-
8b	-so-
=50	=50
(16ccq	-lan-
16ddq	|
8cc)	|
8b	-te in-
8cc	-no-
(4dd	-cen-
8dd#)	|
=51	=51
4ee}	-ce;}
8r	.
{4ee	{Mais
8ee	de
=52	=52
4ffn	la
8ee	crain-
8dd	-ti-
8cc	-ve es-
8b	-pe/-
=53	=53
[8dd	-ran-
16dd]}	-ce}
16r	.
{8cc	{Ta
4cc	feuil-
8b	-le
=54	=54
4b	por-
8g#	-te
4a	la
8ee	cou-
=55	=55
[2.dd#	-leur.
=56	=56
(2.dd#]	|
=57	=57
[2.ddn)	|
=58	=58
8ddn]}	|}
8r	.
8r	.
4r	.
8r	.
!!mm. 58-69 repeat material
!!mm. 70-76 are as at 58
=77	=77
8r	.
8r	.
{8a	{S'il
4b	n'en
8a	est
=78	=78
8g}	rien,}
8r	.
{8f#	{ne
(8e	re/-
8f#)	|
8g	-ponds
=79	=79
4a}	pas;}
8r	.
{8d	{Dors
8g	sur
8f#	mon
=80	=80
(8e	coeur,
8f#)	|
8g	frai-
(8a	-che
8.dd)	et
16cc	le/-
=81	=81
(4.b	-ge\-
16aq	|
16bq	|
4.a)	|
=82	=82
[4.g	-re.
4g]}	|}
8r	.
=83	=83
4r	.
{8g	{Je
8g	con-
8f#	-nais
8g	trop
=84	=84
[4.a	bien
8a]	|
8cc#	cet-
8b	-te
=85	=85
4a}	main,}
{[8ff#	{Plei-
8ff#]	|
8ee	-ne
8dd	de
=86	=86
(8cc#	gra\-
8b)	|
8a	-ce et
(8g	de
8e)	|
8a	ca-
=87	=87
4a	-pri-
8d}	-ce,}
8r	.
{8d	{Qui
8d	d'un
=88	=88
4e	brin
8e	de
8a	fil
8a#	sou-
8d	-ple et
=89	=89
4.g}	fin}
{4d	{A
8d	nou-
=90	=90
4e	-e/
8a	ton
8f#	pa^-
8e	-le
8d	ca-
=91	=91
[4g	-li-
16g]}	-ce.}
16r	.
8r	.
8r	.
8r	.
!!mm.92-101 near identical repeat of mm. 47-56
!!mm.102-122 to more repeats of "a" material
=123	=123
4r	.
16r	.
16r	.
{(8d	{Ne
8g)	|
8f#	dis
=124	=124
(4.e	rien,
4.ee)}	|}
=125	=125
8r	.
{8a	{lais-
8b	-se~
(8cc	~moi
8a)	|
8dd	re^-
=126	=126
[2.dd	-ver.
=127	=127
4.dd_	|
4dd]}	|}
8r	.
=128	=128
{4.ff#	{Ne
4.ee	dis
=129	=129
[4.dd	rien,
8dd]}	|}
8r	.
{8b	{fleu-
=130	=130
[2.aa	-ret-
=131	=131
4.aa_	|
4aa]}	-te,}
8r	.
=132	=132
{(16bq	{Lais-
16ccq	|
8b	|
8a)	|
8b	-se~
[4.cc	~moi
=133	=133
4.cc]	|
4.f#	re^-
=134	=134
(4.g	-ver!
[4.dd)	|
=135	=135
4dd]}	|}
8r	.
{(8e	{lais-
8f#)	|
8d	-se~
=136	=136
(4.g	~moi
[4.dd)	|
=137	=137
4dd]}	|
8r	.
{(8e	{re^-
8f#	|
8d)	|
=138	=138
(4.g	-ver!
[4.gg)	|
=139	=139
2.gg_	|
=140	=140
2.gg_	re^-
=141	=141
2.gg_	|
=142	=142
4.gg_	-ver!
4gg]}	|}
8r	.
*-	*-
